packages/awino-ui/public/images/assets/usdt.svg

<?xml version="1.0" encoding="utf-8"?>
<!-- Generator: Adobe Illustrator 26.0.2, SVG Export Plug-In . SVG Version: 6.00 Build 0)  -->
<svg version="1.1" id="Ebene_1" focusable="false" xmlns="http://www.w3.org/2000/svg" xmlns:xlink="http://www.w3.org/1999/xlink"
	 x="0px" y="0px" viewBox="0 0 24 24" style="enable-background:new 0 0 24 24;" xml:space="preserve">
<style type="text/css">
	.st0{fill-rule:evenodd;clip-rule:evenodd;fill:#50AF95;}
	.st1{fill-rule:evenodd;clip-rule:evenodd;fill:#FFFFFF;}
</style>
<path class="st0" d="M5.7,3.8l-3.6,7.6c0,0.1,0,0.1,0,0.2l9.8,9.4c0.1,0.1,0.1,0.1,0.2,0l9.8-9.4c0,0,0.1-0.1,0-0.2l-3.6-7.6
	c0-0.1-0.1-0.1-0.1-0.1H5.8C5.8,3.7,5.7,3.8,5.7,3.8C5.7,3.8,5.7,3.8,5.7,3.8z"/>
<path class="st1" d="M13.3,12.2L13.3,12.2c-0.1,0-0.4,0-1.2,0c-0.6,0-1.1,0-1.3,0l0,0c-2.5-0.1-4.4-0.5-4.4-1.1c0-0.5,1.9-1,4.4-1.1
	v1.7c0.2,0,0.6,0,1.3,0c0.8,0,1.2,0,1.2,0v-1.7c2.5,0.1,4.3,0.5,4.3,1.1S15.8,12.1,13.3,12.2L13.3,12.2L13.3,12.2z M13.3,9.9V8.4
	h3.5V6.1H7.3v2.3h3.5v1.5c-2.8,0.1-4.9,0.7-4.9,1.4s2.1,1.2,4.9,1.4v4.9h2.5v-4.9c2.8-0.1,4.9-0.7,4.9-1.4
	C18.2,10.6,16.1,10.1,13.3,9.9L13.3,9.9L13.3,9.9z M13.3,9.9L13.3,9.9z"/>
</svg>

<?xml version="1.0" encoding="UTF-8" standalone="no"?>
<svg
   class="MuiSvgIcon-root MuiSvgIcon-fontSizeMedium MuiBox-root css-1om0hkc"
   focusable="false"
   viewBox="0 0 24 24"
   aria-hidden="true"
   data-testid="AccountBoxIcon"
   version="1.1"
   id="svg4"
   xmlns="http://www.w3.org/2000/svg"
   xmlns:svg="http://www.w3.org/2000/svg">
  <defs
     id="defs8">
    <clipPath
       id="clip-path">
      <rect
         id="Rechteck_1170"
         data-name="Rechteck 1170"
         width="15.312"
         height="10.564"
         fill="#fff" />
    </clipPath>
    <filter
       id="filter0_i"
       x="0.859375"
       y="0.592313"
       width="94.4298"
       height="94.6595"
       filterUnits="userSpaceOnUse"
       color-interpolation-filters="sRGB">
      <feFlood
         flood-opacity="0"
         result="BackgroundImageFix"
         id="feFlood927" />
      <feBlend
         mode="normal"
         in="SourceGraphic"
         in2="BackgroundImageFix"
         result="shape"
         id="feBlend929" />
      <feColorMatrix
         in="SourceAlpha"
         type="matrix"
         values="0 0 0 0 0 0 0 0 0 0 0 0 0 0 0 0 0 0 127 0"
         result="hardAlpha"
         id="feColorMatrix931" />
      <feOffset
         dy="-0.689125"
         id="feOffset933" />
      <feGaussianBlur
         stdDeviation="0.114854"
         id="feGaussianBlur935" />
      <feComposite
         in2="hardAlpha"
         operator="arithmetic"
         k2="-1"
         k3="1"
         id="feComposite937" />
      <feColorMatrix
         type="matrix"
         values="0 0 0 0 0.0699479 0 0 0 0 0.9875 0 0 0 0 0.717887 0 0 0 1 0"
         id="feColorMatrix939" />
      <feBlend
         mode="normal"
         in2="shape"
         result="effect1_innerShadow"
         id="feBlend941" />
    </filter>
    <linearGradient
       id="paint0_linear"
       x1="48.0745"
       y1="4.34131"
       x2="48.0745"
       y2="91.7325"
       gradientUnits="userSpaceOnUse">
      <stop
         stop-color="#141E27"
         id="stop944" />
      <stop
         offset="1"
         stop-color="#141E27"
         id="stop946" />
    </linearGradient>
    <clipPath
       id="clip0">
      <rect
         width="96"
         height="96"
         fill="white"
         id="rect949" />
    </clipPath>
    <clipPath
       id="clip-path-1">
      <rect
         id="Rechteck_1170-5"
         data-name="Rechteck 1170"
         width="15.312"
         height="10.564"
         fill="#fff" />
    </clipPath>
    <linearGradient
       id="linear-gradient"
       x1="6.82"
       y1="-0.55799998"
       x2="17.700999"
       y2="30.070001"
       gradientUnits="userSpaceOnUse">
      <stop
         offset="0"
         stop-color="#4e8869"
         id="stop830" />
      <stop
         offset="0.355"
         stop-color="#7cf76c"
         id="stop832" />
      <stop
         offset="0.754"
         stop-color="#54bcea"
         id="stop834" />
      <stop
         offset="1"
         stop-color="#372fff"
         id="stop836" />
      <stop
         offset="1"
         stop-color="#0025f4"
         id="stop838" />
    </linearGradient>
    <linearGradient
       id="linear-gradient-1"
       x1="10.8042"
       y1="-0.88397997"
       x2="28.041809"
       y2="47.636702"
       gradientUnits="userSpaceOnUse">
      <stop
         offset="0"
         stop-color="#f500ff"
         id="stop971" />
      <stop
         offset="0.355"
         stop-color="#ba6cf7"
         id="stop973" />
      <stop
         offset="0.754"
         stop-color="#f2dd35"
         id="stop975" />
      <stop
         offset="0.936"
         stop-color="#f8d648"
         id="stop977" />
      <stop
         offset="1"
         stop-color="#e6d234"
         id="stop979" />
    </linearGradient>
    <clipPath
       id="clip-path-7">
      <rect
         id="Rechteck_1170-6"
         data-name="Rechteck 1170"
         width="15.312"
         height="10.564"
         fill="#fff" />
    </clipPath>
    <filter
       id="filter0_i-6"
       x="0.859375"
       y="0.592313"
       width="94.4298"
       height="94.6595"
       filterUnits="userSpaceOnUse"
       color-interpolation-filters="sRGB">
      <feFlood
         flood-opacity="0"
         result="BackgroundImageFix"
         id="feFlood927-5" />
      <feBlend
         mode="normal"
         in="SourceGraphic"
         in2="BackgroundImageFix"
         result="shape"
         id="feBlend929-6" />
      <feColorMatrix
         in="SourceAlpha"
         type="matrix"
         values="0 0 0 0 0 0 0 0 0 0 0 0 0 0 0 0 0 0 127 0"
         result="hardAlpha"
         id="feColorMatrix931-3" />
      <feOffset
         dy="-0.689125"
         id="feOffset933-9" />
      <feGaussianBlur
         stdDeviation="0.114854"
         id="feGaussianBlur935-4" />
      <feComposite
         in2="hardAlpha"
         operator="arithmetic"
         k2="-1"
         k3="1"
         id="feComposite937-8" />
      <feColorMatrix
         type="matrix"
         values="0 0 0 0 0.0699479 0 0 0 0 0.9875 0 0 0 0 0.717887 0 0 0 1 0"
         id="feColorMatrix939-1" />
      <feBlend
         mode="normal"
         in2="shape"
         result="effect1_innerShadow"
         id="feBlend941-2" />
    </filter>
    <clipPath
       id="clip0-0">
      <rect
         width="96"
         height="96"
         fill="white"
         id="rect949-8" />
    </clipPath>
  </defs>
  <style
     type="text/css"
     id="style1288">
	.st0{fill:#F5AC37;}
	.st1{fill:#FEFEFD;}
</style>
  <style
     type="text/css"
     id="style1427">
	.st0{fill:#343434;}
	.st1{fill:#8C8C8C;}
	.st2{fill:#3C3C3B;}
	.st3{fill:#141414;}
	.st4{fill:#393939;}
</style>
  <style
     type="text/css"
     id="style1952">
	.st0{fill:#343434;}
	.st1{fill:#8C8C8C;}
	.st2{fill:#3C3C3B;}
	.st3{fill:#141414;}
	.st4{fill:#393939;}
</style>
  <style
     type="text/css"
     id="style2511">
	.st0{fill:#2775CA;}
	.st1{fill:#FFFFFF;}
</style>
  <style
     type="text/css"
     id="style2685">
	.st0{fill-rule:evenodd;clip-rule:evenodd;fill:#50AF95;}
	.st1{fill-rule:evenodd;clip-rule:evenodd;fill:#FFFFFF;}
</style>
  <g
     id="g2699"
     transform="matrix(0.90705487,0,0,0.90705487,1.0951848,0.7638578)">
    <path
       class="st0"
       d="m 5.7,3.8 -3.6,7.6 c 0,0.1 0,0.1 0,0.2 l 9.8,9.4 c 0.1,0.1 0.1,0.1 0.2,0 l 9.8,-9.4 c 0,0 0.1,-0.1 0,-0.2 L 18.3,3.8 C 18.3,3.7 18.2,3.7 18.2,3.7 H 5.8 c 0,0 -0.1,0.1 -0.1,0.1 0,0 0,0 0,0 z"
       id="path2687" />
    <path
       class="st1"
       d="m 13.3,12.2 v 0 c -0.1,0 -0.4,0 -1.2,0 -0.6,0 -1.1,0 -1.3,0 v 0 C 8.3,12.1 6.4,11.7 6.4,11.1 c 0,-0.5 1.9,-1 4.4,-1.1 v 1.7 c 0.2,0 0.6,0 1.3,0 0.8,0 1.2,0 1.2,0 V 10 c 2.5,0.1 4.3,0.5 4.3,1.1 0,0.6 -1.8,1 -4.3,1.1 z m 0,-2.3 V 8.4 h 3.5 V 6.1 H 7.3 v 2.3 h 3.5 V 9.9 C 8,10 5.9,10.6 5.9,11.3 c 0,0.7 2.1,1.2 4.9,1.4 v 4.9 h 2.5 v -4.9 c 2.8,-0.1 4.9,-0.7 4.9,-1.4 0,-0.7 -2.1,-1.2 -4.9,-1.4 z m 0,0 z"
       id="path2689" />
  </g>
</svg>
